static/fa/svgs/solid/cake-candles.svg

<svg xmlns="http://www.w3.org/2000/svg" viewBox="0 0 448 512"><!--! Font Awesome Free 6.1.1 by @fontawesome - https://fontawesome.com License - https://fontawesome.com/license/free (Icons: CC BY 4.0, Fonts: SIL OFL 1.1, Code: MIT License) Copyright 2022 Fonticons, Inc.--><path d="M352 111.1c22.09 0 40-17.88 40-39.97S352 0 352 0s-40 49.91-40 72 17.9 39.1 40 39.1zm-128 0c22.09 0 40-17.88 40-39.97S224 0 224 0s-40 49.91-40 72 17.9 39.1 40 39.1zm159.1 112 .9-63.1c0-8.836-7.164-16-16-16h-32c-8.8 0-16 7.2-16 16v64h-64v-64c0-8.836-7.164-16-16-16h-32c-8.8 0-16 7.2-16 16v64h-64v-64c0-8.836-7.164-16-16-16H80c-8.84 0-16 7.2-16 16v63.97c-35.35 0-64 28.65-64 63.1v68.7c9.814 6.102 21.39 11.33 32 11.33 20.64 0 45.05-19.73 52.7-27.33 6.25-6.219 16.34-6.219 22.59 0 6.81 8.53 32.11 27.33 52.71 27.33s45.05-19.73 52.7-27.33c6.25-6.219 16.34-6.219 22.59 0 6.81 8.53 32.11 27.33 52.71 27.33s45.05-19.73 52.7-27.33c6.25-6.219 16.34-6.219 22.59 0 6.81 8.53 32.11 27.33 52.71 27.33 10.61 0 22.19-5.227 32-11.33V287.1c0-34.5-28.7-64-64.9-64zM352 373.3c-13.75 10.95-38.03 26.66-64 26.66s-50.25-15.7-64-26.66c-13.75 10.95-38.03 26.66-64 26.66s-50.25-15.7-64-26.66c-13.75 10.95-38.03 26.66-64 26.66-11.27 0-22.09-3.121-32-7.377v87.38C0 497.7 14.33 512 32 512h384c17.67 0 32-14.33 32-32v-87.38c-9.91 4.256-20.73 7.377-32 7.377-26-.897-50.2-15.697-64-26.697zM96 111.1c22.09 0 40-17.88 40-39.97S96 0 96 0 56 49.91 56 72s17.91 39.1 40 39.1z"/></svg>

<svg xmlns="http://www.w3.org/2000/svg" viewBox="0 0 448 512"><!--! Font Awesome Free 6.1.1 by @fontawesome - https://fontawesome.com License - https://fontawesome.com/license/free (Icons: CC BY 4.0, Fonts: SIL OFL 1.1, Code: MIT License) Copyright 2022 Fonticons, Inc. --><path d="M352 111.1c22.09 0 40-17.88 40-39.97S352 0 352 0s-40 49.91-40 72S329.9 111.1 352 111.1zM224 111.1c22.09 0 40-17.88 40-39.97S224 0 224 0S184 49.91 184 72S201.9 111.1 224 111.1zM383.1 223.1L384 160c0-8.836-7.164-16-16-16h-32C327.2 144 320 151.2 320 160v64h-64V160c0-8.836-7.164-16-16-16h-32C199.2 144 192 151.2 192 160v64H128V160c0-8.836-7.164-16-16-16h-32C71.16 144 64 151.2 64 160v63.97c-35.35 0-64 28.65-64 63.1v68.7c9.814 6.102 21.39 11.33 32 11.33c20.64 0 45.05-19.73 52.7-27.33c6.25-6.219 16.34-6.219 22.59 0C114.1 348.3 139.4 367.1 160 367.1s45.05-19.73 52.7-27.33c6.25-6.219 16.34-6.219 22.59 0C242.1 348.3 267.4 367.1 288 367.1s45.05-19.73 52.7-27.33c6.25-6.219 16.34-6.219 22.59 0C370.1 348.3 395.4 367.1 416 367.1c10.61 0 22.19-5.227 32-11.33V287.1C448 252.6 419.3 223.1 383.1 223.1zM352 373.3c-13.75 10.95-38.03 26.66-64 26.66s-50.25-15.7-64-26.66c-13.75 10.95-38.03 26.66-64 26.66s-50.25-15.7-64-26.66c-13.75 10.95-38.03 26.66-64 26.66c-11.27 0-22.09-3.121-32-7.377v87.38C0 497.7 14.33 512 32 512h384c17.67 0 32-14.33 32-32v-87.38c-9.91 4.256-20.73 7.377-32 7.377C390 399.1 365.8 384.3 352 373.3zM96 111.1c22.09 0 40-17.88 40-39.97S96 0 96 0S56 49.91 56 72S73.91 111.1 96 111.1z"/></svg>
